packages/kaspersky-hexa-ui-icons/src/iconsSVGs/16/Hook.svg

<svg width="16" height="16" viewBox="0 0 16 16" fill="none" xmlns="http://www.w3.org/2000/svg">
<path fill-rule="evenodd" clip-rule="evenodd" d="M10.6668 1.3501C11.0257 1.3501 11.3168 1.64111 11.3168 2.0001V4.12575C12.0929 4.39485 12.6501 5.13241 12.6501 6.00012C12.6501 6.86782 12.0929 7.60539 11.3168 7.87449V10.6668C11.3168 12.8667 9.53337 14.6501 7.33343 14.6501C5.1335 14.6501 3.3501 12.8667 3.3501 10.6668V8.0001C3.3501 7.7372 3.50847 7.50018 3.75135 7.39958C3.99424 7.29897 4.27382 7.35458 4.45972 7.54048L6.45972 9.54048C6.71356 9.79432 6.71356 10.2059 6.45972 10.4597C6.20588 10.7136 5.79432 10.7136 5.54048 10.4597L4.6501 9.56934V10.6668C4.6501 12.1487 5.85147 13.3501 7.33343 13.3501C8.81539 13.3501 10.0168 12.1487 10.0168 10.6668V7.87448C9.24065 7.60537 8.68344 6.86782 8.68344 6.00012C8.68344 5.13242 9.24065 4.39486 10.0168 4.12575V2.0001C10.0168 1.64111 10.3078 1.3501 10.6668 1.3501ZM9.98344 6.00012C9.98344 5.62272 10.2894 5.31678 10.6668 5.31678C11.0442 5.31678 11.3501 5.62272 11.3501 6.00012C11.3501 6.37751 11.0442 6.68345 10.6668 6.68345C10.2894 6.68345 9.98344 6.37751 9.98344 6.00012Z" fill="black"/>
</svg>

<svg xmlns="http://www.w3.org/2000/svg" width="16" height="16" fill="none" viewBox="0 0 16 16"><path fill="#000" fill-rule="evenodd" d="M10.6666 1.35a.65.65 0 0 1 .65.65v2.1256C12.0928 4.3947 12.65 5.1323 12.65 6s-.5572 1.6053-1.3334 1.8744v2.7922c0 2.2-1.7834 3.9834-3.9833 3.9834-2.2 0-3.9833-1.7834-3.9833-3.9834V8a.65.65 0 0 1 1.1096-.4596l2 2a.65.65 0 1 1-.9192.9192L4.65 9.5692v1.0974c0 1.482 1.2013 2.6834 2.6833 2.6834s2.6833-1.2014 2.6833-2.6834V7.8744C9.2406 7.6053 8.6833 6.8677 8.6833 6s.5572-1.6053 1.3333-1.8744V2a.65.65 0 0 1 .65-.65M9.9833 6a.6834.6834 0 1 1 1.3668 0 .6834.6834 0 0 1-1.3668 0"/></svg>
